christians-website/frontend/static/images/skills/svg.svg

<svg height="363" viewBox="0 0 253 263" width="253" xmlns="http://www.w3.org/2000/svg"><g fill="none" fill-rule="evenodd"><path d="m0 0h283v283h-283z" fill="#000" fill-opacity=".01" fill-rule="nonzero"/><g transform="translate(39 20)"><path d="m46.7320716 0h122.2679284c2.761424 0 5 2.23857625 5 5v203c0 2.761424-2.238576 5-5 5h-163c-2.76142375 0-5-2.238576-5-5v-163.412897z" fill-rule="nonzero" stroke="#fff" stroke-width="3"/><g fill="#fff"><path d="m21 113.861478 12.962406-.801452c.2807032 2.077847.852126 3.660945 1.7142857 4.749341 1.4035158 1.761222 3.4085083 2.64182 6.0150376 2.64182 1.9448719 0 3.4436038-.450193 4.4962406-1.350593 1.0526369-.900401 1.5789474-1.944256 1.5789474-3.131597 0-1.127974-.5012481-2.137198-1.5037594-3.027704s-3.3283026-1.731527-6.9774436-2.523087c-5.9749672-1.325864-10.2355763-3.08706-12.7819549-5.283641-2.5664289-2.196581-3.8496241-4.996685-3.8496241-8.4003961 0-2.236159.6566351-4.3486049 1.9699249-6.3374011 1.3132897-1.9887962 3.2882073-3.5521051 5.924812-4.6899736 2.6366046-1.1378685 6.2506036-1.7067942 10.8421052-1.7067942 5.6341134 0 9.9298098 1.0339606 12.8872181 3.1019129s4.7167892 5.3578271 5.2781955 9.869723l-12.8421053.7420844c-.3408538-1.9591127-1.0576386-3.3839005-2.1503759-4.2744063s-2.6014942-1.335752-4.5263158-1.335752c-1.5839678 0-2.7769384.3314611-3.5789474.9943931-.802009.6629321-1.2030075 1.4693225-1.2030075 2.4191953 0 .6926156.3308238 1.3159603.9924812 1.8700528.6416072.5738815 2.1654015 1.1081769 4.5714286 1.6029023 5.954917 1.2664975 10.2205385 2.5478165 12.7969925 3.8439975 2.5764539 1.296181 4.4511219 2.904014 5.6240601 4.823549 1.1729382 1.919534 1.7593985 4.066611 1.7593985 6.441293 0 2.790251-.7819471 5.362785-2.3458647 7.717678s-3.7493594 4.140825-6.5563909 5.357849c-2.8070316 1.217025-6.3458433 1.825528-10.6165414 1.825528-7.4987844 0-12.6917149-1.424788-15.5789474-4.274406-2.8872324-2.849619-4.5213013-6.470955-4.9022556-10.864116zm41-28.861478h14.3184393l9.9685336 30.944748 9.8174953-30.944748h13.8955318l-16.4329767 43h-14.8319698zm70.901541 27.496042v-9.05343h21.098459v18.552111c-4.038868 2.711095-7.6105 4.556393-10.715003 5.53595-3.104503.979556-6.78665 1.469327-11.046551 1.469327-5.2445 0-9.519407-.880598-12.824849-2.641821-3.305442-1.761222-5.867372-4.383228-7.685868-7.866095-1.818495-3.482867-2.727729-7.480188-2.727729-11.992084 0-4.749364.994632-8.8802595 2.983925-12.39281 1.989293-3.5125506 4.902861-6.1790806 8.74079-7.9996702 2.993987-1.4050202 7.022748-2.1075198 12.086404-2.1075198 4.88281 0 8.534817.4353518 10.956128 1.3060686 2.421312.8707168 4.430669 2.2212969 6.028131 4.051781 1.597463 1.8304841 2.798054 4.1507115 3.601809 6.960752l-13.171467 2.3153034c-.542535-1.6424884-1.461815-2.8990722-2.75787-3.7697889-1.296055-.8707168-2.948751-1.3060686-4.958138-1.3060686-2.993987 0-5.380098 1.0240663-7.158406 3.0722295-1.778308 2.0481633-2.667448 5.288566-2.667448 9.721306 0 4.709786.899187 8.073869 2.697589 10.092348 1.798401 2.01848 4.305074 3.027705 7.520094 3.027705 1.527134 0 2.983918-.217676 4.370395-.653034 1.386477-.435359 2.973869-1.177436 4.762223-2.226254v-4.096306z"/><path d="m45.8568616.51035116h122.9445304c2.209139 0 4 1.790861 4 4v62.48964884h-172.24343046v-22.4521907z" fill-rule="nonzero"/><path d="m12 151h151v12h-151z" fill-rule="nonzero"/><g fill-rule="nonzero"><rect height="21" rx="1.5" width="7.982143" x="13" y="182"/><rect height="21" rx="1.5" width="7.982143" x="74.196429" y="182"/><rect height="21" rx="1.5" width="7.982143" x="34.285714" y="182"/><rect height="21" rx="1.5" width="7.982143" x="92.821429" y="182"/><rect height="21" rx="1.5" width="7.982143" x="132.732143" y="182"/><rect height="21" rx="1.5" width="7.982143" x="52.910714" y="182"/><rect height="21" rx="1.5" width="7.982143" x="114.107143" y="182"/><rect height="21" rx="1.5" width="7.982143" x="154.017857" y="182"/></g></g></g></g></svg>

<?xml version="1.0" encoding="UTF-8"?>
<svg width="253px" height="363px" viewBox="0 0 253 263" version="1.1" xmlns="http://www.w3.org/2000/svg" xmlns:xlink="http://www.w3.org/1999/xlink">
    <!-- Generator: Sketch 52.5 (67469) - http://www.bohemiancoding.com/sketch -->
    <title>sass copy</title>
    <desc>Created with Sketch.</desc>
    <g id="Page-1" stroke="none" stroke-width="1" fill="none" fill-rule="evenodd">
        <g id="sass-copy">
            <rect id="Rectangle-Copy-6" fill-opacity="0.01" fill="#000000" fill-rule="nonzero" x="0" y="0" width="283" height="283"></rect>
            <g id="Group-6" transform="translate(39.000000, 20.000000)">
                <path d="M46.7320716,0 L169,8.8817842e-16 C171.761424,3.80913106e-16 174,2.23857625 174,5 L174,208 C174,210.761424 171.761424,213 169,213 L6,213 C3.23857625,213 1,210.761424 1,208 L1,44.587103 L46.7320716,0 Z" id="Path" stroke="#FFFFFF" stroke-width="3" fill-rule="nonzero"></path>
                <path d="M21,113.861478 L33.962406,113.060026 C34.2431092,115.137873 34.814532,116.720971 35.6766917,117.809367 C37.0802075,119.570589 39.0852,120.451187 41.6917293,120.451187 C43.6366012,120.451187 45.1353331,120.000994 46.1879699,119.100594 C47.2406068,118.200193 47.7669173,117.156338 47.7669173,115.968997 C47.7669173,114.841023 47.2656692,113.831799 46.2631579,112.941293 C45.2606466,112.050787 42.9348553,111.209766 39.2857143,110.418206 C33.3107471,109.092342 29.050138,107.331146 26.5037594,105.134565 C23.9373305,102.937984 22.6541353,100.13788 22.6541353,96.7341689 C22.6541353,94.4980099 23.3107704,92.385564 24.6240602,90.3967678 C25.9373499,88.4079716 27.9122675,86.8446627 30.5488722,85.7067942 C33.1854768,84.5689257 36.7994758,84 41.3909774,84 C47.0250908,84 51.3207872,85.0339606 54.2781955,87.1019129 C57.2356038,89.1698652 58.9949847,92.45974 59.556391,96.9716359 L46.7142857,97.7137203 C46.3734319,95.7546076 45.6566471,94.3298198 44.5639098,93.439314 C43.4711725,92.5488082 41.9624156,92.103562 40.037594,92.103562 C38.4536262,92.103562 37.2606556,92.4350231 36.4586466,93.0979551 C35.6566376,93.7608872 35.2556391,94.5672776 35.2556391,95.5171504 C35.2556391,96.209766 35.5864629,96.8331107 36.2481203,97.3872032 C36.8897275,97.9610847 38.4135218,98.4953801 40.8195489,98.9901055 C46.7744659,100.256603 51.0400874,101.537922 53.6165414,102.834103 C56.1929953,104.130284 58.0676633,105.738117 59.2406015,107.657652 C60.4135397,109.577186 61,111.724263 61,114.098945 C61,116.889196 60.2180529,119.46173 58.6541353,121.816623 C57.0902177,124.171516 54.9047759,125.957448 52.0977444,127.174472 C49.2907128,128.391497 45.7519011,129 41.481203,129 C33.9824186,129 28.7894881,127.575212 25.9022556,124.725594 C23.0150232,121.875975 21.3809543,118.254639 21,113.861478 Z M62,85 L76.3184393,85 L86.2869729,115.944748 L96.1044682,85 L110,85 L93.5670233,128 L78.7350535,128 L62,85 Z M132.901541,112.496042 L132.901541,103.442612 L154,103.442612 L154,121.994723 C149.961132,124.705818 146.3895,126.551116 143.284997,127.530673 C140.180494,128.510229 136.498347,129 132.238446,129 C126.993946,129 122.719039,128.119402 119.413597,126.358179 C116.108155,124.596957 113.546225,121.974951 111.727729,118.492084 C109.909234,115.009217 109,111.011896 109,106.5 C109,101.750636 109.994632,97.6197405 111.983925,94.10719 C113.973218,90.5946394 116.886786,87.9281094 120.724715,86.1075198 C123.718702,84.7024996 127.747463,84 132.811119,84 C137.693929,84 141.345936,84.4353518 143.767247,85.3060686 C146.188559,86.1767854 148.197916,87.5273655 149.795378,89.3578496 C151.392841,91.1883337 152.593432,93.5085611 153.397187,96.3186016 L140.22572,98.633905 C139.683185,96.9914166 138.763905,95.7348328 137.46785,94.8641161 C136.171795,93.9933993 134.519099,93.5580475 132.509712,93.5580475 C129.515725,93.5580475 127.129614,94.5821138 125.351306,96.630277 C123.572998,98.6784403 122.683858,101.918843 122.683858,106.351583 C122.683858,111.061369 123.583045,114.425452 125.381447,116.443931 C127.179848,118.462411 129.686521,119.471636 132.901541,119.471636 C134.428675,119.471636 135.885459,119.25396 137.271936,118.818602 C138.658413,118.383243 140.245805,117.641166 142.034159,116.592348 L142.034159,112.496042 L132.901541,112.496042 Z" id="SVG" fill="#FFFFFF"></path>
                <path d="M45.8568616,0.510351163 L168.801392,0.510351163 C171.010531,0.510351163 172.801392,2.30121216 172.801392,4.51035116 L172.801392,67 L0.557961541,67 L0.557961541,44.5478093 L45.8568616,0.510351163 Z" id="Rectangle" fill="#FFFFFF" fill-rule="nonzero"></path>
                <rect id="Rectangle-Copy-14" fill="#FFFFFF" fill-rule="nonzero" x="12" y="151" width="151" height="12"></rect>
                <g id="Group-5" transform="translate(13.000000, 182.000000)" fill="#FFFFFF" fill-rule="nonzero">
                    <rect id="Rectangle" x="0" y="0" width="7.98214286" height="21" rx="1.5"></rect>
                    <rect id="Rectangle-Copy-9" x="61.1964286" y="0" width="7.98214286" height="21" rx="1.5"></rect>
                    <rect id="Rectangle-Copy-7" x="21.2857143" y="0" width="7.98214286" height="21" rx="1.5"></rect>
                    <rect id="Rectangle-Copy-10" x="79.8214286" y="0" width="7.98214286" height="21" rx="1.5"></rect>
                    <rect id="Rectangle-Copy-12" x="119.732143" y="0" width="7.98214286" height="21" rx="1.5"></rect>
                    <rect id="Rectangle-Copy-8" x="39.9107143" y="0" width="7.98214286" height="21" rx="1.5"></rect>
                    <rect id="Rectangle-Copy-11" x="101.107143" y="0" width="7.98214286" height="21" rx="1.5"></rect>
                    <rect id="Rectangle-Copy-13" x="141.017857" y="0" width="7.98214286" height="21" rx="1.5"></rect>
                </g>
            </g>
        </g>
    </g>
</svg>
